static/img/sponsors/ODLogo_Black.svg

<svg fill="none" height="24" viewBox="0 0 219 24" width="219" xmlns="http://www.w3.org/2000/svg"><path clip-rule="evenodd" d="m10.3125 22.5v-1.875h-2.8125c-3.1066 0-5.625-2.5184-5.625-5.625v-7.5c0-3.1066 2.5184-5.625 5.625-5.625h2.8125v-1.875h-2.8125c-4.14214 0-7.5 3.35786-7.5 7.5v7.5c0 4.1421 3.35786 7.5 7.5 7.5zm4.6875-1.875h-2.8125v1.875h2.8125c4.1421 0 7.5-3.3579 7.5-7.5v-7.5c0-4.14214-3.3579-7.5-7.5-7.5h-2.8125v1.875h2.8125c3.1066 0 5.625 2.5184 5.625 5.625v7.5c0 3.1066-2.5184 5.625-5.625 5.625zm26.3792-1.35c.8123.35 1.7253.525 2.7389.525.9987 0 1.9079-.175 2.7277-.525s1.5166-.8638 2.0905-1.5415 1.0173-1.5191 1.3303-2.5245c.3131-1.0053.4696-2.1632.4696-3.4739 0-1.3106-.1565-2.46488-.4696-3.46276-.313-.99788-.7564-1.83936-1.3303-2.52447s-1.2707-1.20266-2.0905-1.55266-1.729-.525-2.7277-.525c-1.0136 0-1.9266.175-2.7389.525-.8124.35-1.5055.86755-2.0793 1.55266-.5739.68511-1.0174 1.52659-1.3304 2.52447s-.4695 2.15216-.4695 3.46276c0 1.3107.1565 2.4686.4695 3.4739.313 1.0054.7565 1.8468 1.3304 2.5245.5738.6777 1.2669 1.1915 2.0793 1.5415zm4.5946-1.508c-.5664.2383-1.185.3575-1.8557.3575-.6708 0-1.2894-.1192-1.8558-.3575s-1.0545-.5808-1.4644-1.0276-.7267-.983-.9503-1.6085c-.2236-.6256-.3353-1.3256-.3353-2.1v-2.5915c0-.77451.1117-1.4745.3353-2.10004.2236-.62553.5404-1.1617.9503-1.60851s.898-.78936 1.4644-1.02766 1.185-.35744 1.8558-.35744c.6707 0 1.2893.11914 1.8557.35744s1.0546.58085 1.4645 1.02766.7266.98298.9502 1.60851c.2236.62554.3354 1.32553.3354 2.10004v2.5915c0 .7744-.1118 1.4744-.3354 2.1-.2236.6255-.5403 1.1617-.9502 1.6085s-.8981.7893-1.4645 1.0276zm9.7483-9.76274h-1.7887v15.99574h1.7887v-6.3447h.0894c.6857 1.4298 1.811 2.1447 3.3761 2.1447.7155 0 1.3639-.1415 1.9452-.4245.5813-.2829 1.0769-.6851 1.4868-1.2064.4099-.5212.723-1.1542.9391-1.8989s.3242-1.5787.3242-2.5021-.1081-1.7575-.3242-2.5021c-.2161-.7447-.5292-1.3777-.9391-1.89898s-.9055-.9234-1.4868-1.20638-1.2297-.42447-1.9452-.42447c-.8049 0-1.4943.175-2.0681.525-.5739.35-1.0099.88989-1.308 1.61968h-.0894zm5.366 9.23774c-.5813.633-1.3788.9495-2.3924.9495-.4024 0-.7862-.0521-1.1514-.1564-.3652-.1042-.6819-.2569-.9502-.458-.2683-.201-.4808-.4468-.6373-.7372s-.2347-.6218-.2347-.9942v-4.2893c0-.3128.0782-.6069.2347-.8825.1565-.2755.369-.5101.6373-.70369.2683-.19362.585-.34627.9502-.45798.3652-.1117.749-.16755 1.1514-.16755 1.0136 0 1.8111.31649 2.3924.94942.5813.633.872 1.4633.872 2.491v1.966c0 1.0276-.2907 1.8579-.872 2.4909zm6.9423 1.7649c.3204.35.7937.525 1.4197.525h2.2359v-1.5638h-2.3477v-8.40002h2.5265v-1.56382h-2.5265v-3.19469h-1.6098v2.14469c0 .38723-.0708.65904-.2124.81542s-.4062.23458-.7937.23458h-1.0732v1.56382h1.9005v8.06492c0 .5659.1602 1.0239.4807 1.3739zm6.7746-13.98509c.1714.18617.4508.27925.8384.27925.3875 0 .667-.09308.8384-.27925s.2572-.42819.2572-.72607v-.29042c0-.29787-.0858-.53989-.2572-.72606-.1714-.18618-.4509-.27926-.8384-.27926-.3876 0-.667.09308-.8384.27926-.1715.18617-.2572.42819-.2572.72606v.29042c0 .29788.0857.5399.2572.72607zm7.3223 2.98245h-1.7886v11.52764h1.7886v-7.9979c0-.3723.0783-.6962.2348-.9718.1565-.2755.3614-.5026.6148-.68135.2534-.17872.5441-.31276.872-.40213.3279-.08936.6708-.13404 1.0285-.13404.8496 0 1.4757.26064 1.8781.78192.4025.5213.6037 1.2957.6037 2.3234v7.0819h1.7887v-7.9979c0-.3723.0745-.6962.2235-.9718.1491-.2755.3503-.5026.6037-.68135.2534-.17872.5403-.31276.8608-.40213.3205-.08936.6596-.13404 1.0173-.13404.8795 0 1.5204.26064 1.9228.78192.4025.5213.6037 1.2957.6037 2.3234v7.0819h1.7887v-7.3947c0-1.4-.3317-2.48347-.995-3.2505-.6633-.76702-1.5837-1.15053-2.7612-1.15053-.9838 0-1.7626.23457-2.3365.70372-.5738.46916-.9651 1.01649-1.1738 1.64201h-.0447c-.313-.83403-.79-1.43349-1.4309-1.79839-.641-.36489-1.3415-.54734-2.1017-.54734-.4472 0-.8347.05585-1.1627.16755-.3279.11171-.6148.26436-.8608.45798-.2459.19362-.4546.42074-.626.68139-.1714.26063-.3242.53989-.4583.83776h-.0895zm24.6727 10.99144c.29.3575.771.5362 1.442.5362h1.006v-1.5638h-1.319v-6.3447c0-1.2213-.388-2.17446-1.163-2.85957s-1.863-1.02766-3.264-1.02766c-1.043 0-1.908.21968-2.594.65904-.685.43937-1.1846.97181-1.4976 1.59734l1.0736 1.00535c.313-.5213.704-.9383 1.173-1.25109.47-.31277 1.055-.46915 1.756-.46915.924 0 1.609.21596 2.056.64787.448.43187.671 1.05747.671 1.87657v1.1394h-2.28c-1.685 0-2.926.2904-3.723.8713-.7975.5808-1.1962 1.4149-1.1962 2.5021 0 1.0723.3391 1.9213 1.0173 2.5468.6779.6255 1.6289.9383 2.8509.9383.805 0 1.498-.1787 2.079-.5362.581-.3574.999-.8936 1.252-1.6085h.112c.075.5362.257.983.548 1.3404zm-30.2623-10.99144h-1.7886v11.52764h1.7886zm27.7913 10.12024c-.372.1042-.782.1564-1.23.1564-.7 0-1.255-.1564-1.665-.4692s-.615-.7521-.615-1.3181v-.4691c0-.566.235-.9979.704-1.2958.47-.2978 1.219-.4468 2.247-.4468h2.37v1.899c0 .2978-.074.5734-.223.8265-.149.2532-.358.4766-.626.6703-.269.1936-.589.3425-.962.4468zm7.949.8824c.32.35.793.525 1.419.525h1.588v-1.5638h-1.699v-14.9681h-1.789v14.6777c0 .5361.16.9792.481 1.3292zm17.244-15.0686h-5.232v15.5936h5.232c.969 0 1.848-.1638 2.638-.4915.79-.3276 1.465-.8154 2.024-1.4633.558-.6478.987-1.4595 1.285-2.4351.298-.9755.447-2.1111.447-3.4069 0-1.2957-.149-2.43137-.447-3.40691-.298-.97553-.727-1.78723-1.285-2.4351-.559-.64788-1.234-1.13564-2.024-1.4633s-1.669-.49149-2.638-.49149zm1.766 13.6165c-.537.2159-1.125.3239-1.766.3239h-3.354v-12.28721h3.354c.641 0 1.229.10798 1.766.32394.537.21595.999.53244 1.386.94946.388.41703.69.92713.906 1.53032.216.6032.324 1.29202.324 2.06649v2.5468c0 .7745-.108 1.4633-.324 2.0665s-.518 1.1133-.906 1.5303c-.387.417-.849.7335-1.386.9495zm16.702-9.55055h-1.767l-2.794 7.84145-.626 1.8766h-.112l-.537-1.8766-2.772-7.84145h-1.789l4.315 11.97445-.872 2.4575h-1.811v1.5638h.917c.417 0 .771-.0298 1.062-.0894.291-.0595.533-.1563.727-.2904.193-.134.357-.3165.492-.5473.134-.2309.268-.5176.402-.8601zm4.069 0h-1.789v11.52765h1.789v-7.9979c0-.3723.078-.6962.235-.9718.156-.2755.369-.5026.637-.68135.268-.17872.57-.31276.906-.40213.335-.08936.681-.13404 1.039-.13404 1.744 0 2.616 1.03512 2.616 3.10532v7.0819h1.789v-7.3947c0-1.4-.347-2.48347-1.04-3.2505-.693-.76702-1.636-1.15053-2.828-1.15053-.865 0-1.554.19362-2.068.58085-.515.38724-.913.90851-1.197 1.56383h-.089zm17.853 10.99145c.291.3575.772.5362 1.442.5362h1.006v-1.5638h-1.319v-6.3447c0-1.2213-.387-2.17446-1.162-2.85957s-1.864-1.02766-3.265-1.02766c-1.043 0-1.908.21968-2.593.65904-.686.43937-1.185.97181-1.498 1.59734l1.073 1.00535c.313-.5213.704-.9383 1.174-1.25109.469-.31277 1.054-.46915 1.755-.46915.924 0 1.61.21595 2.057.64787.447.43187.671 1.05747.671 1.87657v1.1394h-2.281c-1.684 0-2.925.2904-3.723.8713-.797.5808-1.196 1.4149-1.196 2.5021 0 1.0723.339 1.9213 1.018 2.5468.678.6255 1.628.9383 2.85.9383.805 0 1.498-.1787 2.08-.5362.581-.3574.998-.8936 1.252-1.6085h.111c.075.5362.258.983.548 1.3404zm-2.47-.8712c-.373.1042-.783.1564-1.23.1564-.701 0-1.256-.1564-1.666-.4692s-.615-.7521-.615-1.3181v-.4691c0-.566.235-.9979.705-1.2958.469-.2978 1.218-.4468 2.247-.4468h2.37v1.899c0 .2978-.075.5734-.224.8265-.149.2532-.358.4766-.626.6703-.268.1936-.589.3425-.961.4468zm9.256-10.12025h-1.789v11.52765h1.789v-7.9979c0-.3723.078-.6962.235-.9718.156-.2755.361-.5026.615-.68135.253-.17872.544-.31276.872-.40213.327-.08936.67-.13404 1.028-.13404.85 0 1.476.26064 1.878.78192.403.5213.604 1.2957.604 2.3234v7.0819h1.788v-7.9979c0-.3723.075-.6962.224-.9718.149-.2755.35-.5026.604-.68135.253-.17872.54-.31276.861-.40213.32-.08936.659-.13404 1.017-.13404.879 0 1.52.26064 1.923.78192.402.5213.603 1.2957.603 2.3234v7.0819h1.789v-7.3947c0-1.4-.332-2.48347-.995-3.2505-.663-.76702-1.584-1.15053-2.761-1.15053-.984 0-1.763.23457-2.337.70372-.574.46916-.965 1.01649-1.173 1.64201h-.045c-.313-.83403-.79-1.43349-1.431-1.79839-.641-.36489-1.342-.54734-2.102-.54734-.447 0-.835.05585-1.162.16755-.328.11171-.615.26436-.861.45798s-.455.42075-.626.68139c-.172.26064-.324.53989-.459.83776h-.089zm17.786-2.98244c.171.18617.451.27925.838.27925.388 0 .668-.09308.839-.27925s.257-.42819.257-.72607v-.29042c0-.29787-.086-.53989-.257-.72606-.171-.18618-.451-.27926-.839-.27926-.387 0-.667.09308-.838.27926-.171.18617-.257.42819-.257.72606v.29042c0 .29788.086.5399.257.72607zm1.733 2.98244h-1.789v11.52765h1.789zm5.925 11.37125c.641.283 1.364.4245 2.169.4245 1.103 0 2.023-.2457 2.761-.7372s1.293-1.1543 1.666-1.9883l-1.297-.8713c-.641 1.3404-1.685 2.0106-3.13 2.0106-1.059 0-1.86-.3239-2.404-.9718s-.816-1.4782-.816-2.4909v-1.966c0-.5064.067-.9718.201-1.3963.134-.4244.336-.7893.604-1.0947.268-.30527.604-.54357 1.006-.71485.402-.17127.872-.25691 1.409-.25691.715 0 1.311.16383 1.788.49149.477.32767.82.78937 1.029 1.38507l1.498-.7595c-.343-.8043-.861-1.45589-1.554-1.95483-.693-.49893-1.614-.7484-2.761-.7484-.805 0-1.528.14149-2.169.42447s-1.181.6851-1.621 1.20638-.775 1.15428-1.006 1.89898c-.231.7446-.347 1.5787-.347 2.5021s.116 1.7574.347 2.5021.566 1.3777 1.006 1.8989c.44.5213.98.9235 1.621 1.2064zm9.893-.1899c.723.4096 1.621.6144 2.695.6144 1.326 0 2.37-.3202 3.13-.9606.76-.6405 1.14-1.5192 1.14-2.6362 0-.8787-.268-1.5899-.805-2.1335-.536-.5436-1.446-.9123-2.728-1.1059l-.894-.134c-.715-.1192-1.263-.3053-1.643-.5585s-.57-.6628-.57-1.2287c0-.5511.19-.9867.57-1.30696.38-.32022.942-.48032 1.688-.48032.745 0 1.364.14521 1.856.43564.491.29043.864.61434 1.117.97184l1.185-1.07237c-.477-.58086-1.032-1.03511-1.665-1.36277-.634-.32766-1.42-.49149-2.359-.49149-.581 0-1.125.07074-1.632.21223s-.943.35373-1.308.63671-.652.6367-.861 1.06117c-.209.42442-.313.91972-.313 1.48562 0 .5362.093.9979.279 1.3851.187.3873.448.7112.783.9718.335.2607.727.4692 1.174.6256.447.1563.939.2718 1.475.3462l.917.1341c.76.1191 1.286.3388 1.576.659.291.3202.436.7037.436 1.1506 0 .5957-.212 1.0574-.637 1.3851-.425.3276-1.017.4915-1.777.4915-.731 0-1.372-.1527-1.923-.458-.552-.3053-1.051-.741-1.498-1.3069l-1.275 1.0276c.522.6851 1.144 1.2325 1.867 1.642z" fill="#000" fill-rule="evenodd"/></svg>

<svg width="219" height="24" viewBox="0 0 219 24" fill="none" xmlns="http://www.w3.org/2000/svg">
<path fill-rule="evenodd" clip-rule="evenodd" d="M10.3125 22.5V20.625H7.5C4.3934 20.625 1.875 18.1066 1.875 15V7.5C1.875 4.3934 4.3934 1.875 7.5 1.875H10.3125V0H7.5C3.35786 0 0 3.35786 0 7.5V15C0 19.1421 3.35786 22.5 7.5 22.5H10.3125ZM15 20.625H12.1875V22.5H15C19.1421 22.5 22.5 19.1421 22.5 15V7.5C22.5 3.35786 19.1421 0 15 0H12.1875V1.875H15C18.1066 1.875 20.625 4.3934 20.625 7.5V15C20.625 18.1066 18.1066 20.625 15 20.625ZM41.3792 19.275C42.1915 19.625 43.1045 19.8 44.1181 19.8C45.1168 19.8 46.026 19.625 46.8458 19.275C47.6656 18.925 48.3624 18.4112 48.9363 17.7335C49.5102 17.0558 49.9536 16.2144 50.2666 15.209C50.5797 14.2037 50.7362 13.0458 50.7362 11.7351C50.7362 10.4245 50.5797 9.27022 50.2666 8.27234C49.9536 7.27446 49.5102 6.43298 48.9363 5.74787C48.3624 5.06276 47.6656 4.54521 46.8458 4.19521C46.026 3.84521 45.1168 3.67021 44.1181 3.67021C43.1045 3.67021 42.1915 3.84521 41.3792 4.19521C40.5668 4.54521 39.8737 5.06276 39.2999 5.74787C38.726 6.43298 38.2825 7.27446 37.9695 8.27234C37.6565 9.27022 37.5 10.4245 37.5 11.7351C37.5 13.0458 37.6565 14.2037 37.9695 15.209C38.2825 16.2144 38.726 17.0558 39.2999 17.7335C39.8737 18.4112 40.5668 18.925 41.3792 19.275ZM45.9738 17.767C45.4074 18.0053 44.7888 18.1245 44.1181 18.1245C43.4473 18.1245 42.8287 18.0053 42.2623 17.767C41.6959 17.5287 41.2078 17.1862 40.7979 16.7394C40.388 16.2926 40.0712 15.7564 39.8476 15.1309C39.624 14.5053 39.5123 13.8053 39.5123 13.0309V10.4394C39.5123 9.66489 39.624 8.9649 39.8476 8.33936C40.0712 7.71383 40.388 7.17766 40.7979 6.73085C41.2078 6.28404 41.6959 5.94149 42.2623 5.70319C42.8287 5.46489 43.4473 5.34575 44.1181 5.34575C44.7888 5.34575 45.4074 5.46489 45.9738 5.70319C46.5402 5.94149 47.0284 6.28404 47.4383 6.73085C47.8482 7.17766 48.1649 7.71383 48.3885 8.33936C48.6121 8.9649 48.7239 9.66489 48.7239 10.4394V13.0309C48.7239 13.8053 48.6121 14.5053 48.3885 15.1309C48.1649 15.7564 47.8482 16.2926 47.4383 16.7394C47.0284 17.1862 46.5402 17.5287 45.9738 17.767ZM55.7221 8.00426H53.9334V24H55.7221V17.6553H55.8115C56.4972 19.0851 57.6225 19.8 59.1876 19.8C59.9031 19.8 60.5515 19.6585 61.1328 19.3755C61.7141 19.0926 62.2097 18.6904 62.6196 18.1691C63.0295 17.6479 63.3426 17.0149 63.5587 16.2702C63.7748 15.5255 63.8829 14.6915 63.8829 13.7681C63.8829 12.8447 63.7748 12.0106 63.5587 11.266C63.3426 10.5213 63.0295 9.8883 62.6196 9.36702C62.2097 8.84574 61.7141 8.44362 61.1328 8.16064C60.5515 7.87766 59.9031 7.73617 59.1876 7.73617C58.3827 7.73617 57.6933 7.91117 57.1195 8.26117C56.5456 8.61117 56.1096 9.15106 55.8115 9.88085H55.7221V8.00426ZM61.0881 17.242C60.5068 17.875 59.7093 18.1915 58.6957 18.1915C58.2933 18.1915 57.9095 18.1394 57.5443 18.0351C57.1791 17.9309 56.8624 17.7782 56.5941 17.5771C56.3258 17.3761 56.1133 17.1303 55.9568 16.8399C55.8003 16.5495 55.7221 16.2181 55.7221 15.8457V11.5564C55.7221 11.2436 55.8003 10.9495 55.9568 10.6739C56.1133 10.3984 56.3258 10.1638 56.5941 9.97021C56.8624 9.77659 57.1791 9.62394 57.5443 9.51223C57.9095 9.40053 58.2933 9.34468 58.6957 9.34468C59.7093 9.34468 60.5068 9.66117 61.0881 10.2941C61.6694 10.9271 61.9601 11.7574 61.9601 12.7851V14.7511C61.9601 15.7787 61.6694 16.609 61.0881 17.242ZM68.0304 19.0069C68.3508 19.3569 68.8241 19.5319 69.4501 19.5319H71.686V17.9681H69.3383V9.56808H71.8648V8.00426H69.3383V4.80957H67.7285V6.95426C67.7285 7.34149 67.6577 7.6133 67.5161 7.76968C67.3745 7.92606 67.1099 8.00426 66.7224 8.00426H65.6492V9.56808H67.5497V17.633C67.5497 18.1989 67.7099 18.6569 68.0304 19.0069ZM74.805 5.02181C74.9764 5.20798 75.2558 5.30106 75.6434 5.30106C76.0309 5.30106 76.3104 5.20798 76.4818 5.02181C76.6532 4.83564 76.739 4.59362 76.739 4.29574V4.00532C76.739 3.70745 76.6532 3.46543 76.4818 3.27926C76.3104 3.09308 76.0309 3 75.6434 3C75.2558 3 74.9764 3.09308 74.805 3.27926C74.6335 3.46543 74.5478 3.70745 74.5478 4.00532V4.29574C74.5478 4.59362 74.6335 4.83564 74.805 5.02181ZM82.1273 8.00426H80.3387V19.5319H82.1273V11.534C82.1273 11.1617 82.2056 10.8378 82.3621 10.5622C82.5186 10.2867 82.7235 10.0596 82.9769 9.88085C83.2303 9.70213 83.521 9.56809 83.8489 9.47872C84.1768 9.38936 84.5197 9.34468 84.8774 9.34468C85.727 9.34468 86.3531 9.60532 86.7555 10.1266C87.158 10.6479 87.3592 11.4223 87.3592 12.45V19.5319H89.1479V11.534C89.1479 11.1617 89.2224 10.8378 89.3714 10.5622C89.5205 10.2867 89.7217 10.0596 89.9751 9.88085C90.2285 9.70213 90.5154 9.56809 90.8359 9.47872C91.1564 9.38936 91.4955 9.34468 91.8532 9.34468C92.7327 9.34468 93.3736 9.60532 93.776 10.1266C94.1785 10.6479 94.3797 11.4223 94.3797 12.45V19.5319H96.1684V12.1372C96.1684 10.7372 95.8367 9.65373 95.1734 8.8867C94.5101 8.11968 93.5897 7.73617 92.4122 7.73617C91.4284 7.73617 90.6496 7.97074 90.0757 8.43989C89.5019 8.90905 89.1106 9.45638 88.9019 10.0819H88.8572C88.5442 9.24787 88.0672 8.64841 87.4263 8.28351C86.7853 7.91862 86.0848 7.73617 85.3246 7.73617C84.8774 7.73617 84.4899 7.79202 84.1619 7.90372C83.834 8.01543 83.5471 8.16808 83.3011 8.3617C83.0552 8.55532 82.8465 8.78244 82.6751 9.04309C82.5037 9.30372 82.3509 9.58298 82.2168 9.88085H82.1273V8.00426ZM106.8 18.9957C107.09 19.3532 107.571 19.5319 108.242 19.5319H109.248V17.9681H107.929V11.6234C107.929 10.4021 107.541 9.44894 106.766 8.76383C105.991 8.07872 104.903 7.73617 103.502 7.73617C102.459 7.73617 101.594 7.95585 100.908 8.39521C100.223 8.83458 99.7234 9.36702 99.4104 9.99255L100.484 10.9979C100.797 10.4766 101.188 10.0596 101.657 9.74681C102.127 9.43404 102.712 9.27766 103.413 9.27766C104.337 9.27766 105.022 9.49362 105.469 9.92553C105.917 10.3574 106.14 10.983 106.14 11.8021V12.9415H103.86C102.175 12.9415 100.934 13.2319 100.137 13.8128C99.3395 14.3936 98.9408 15.2277 98.9408 16.3149C98.9408 17.3872 99.2799 18.2362 99.9581 18.8617C100.636 19.4872 101.587 19.8 102.809 19.8C103.614 19.8 104.307 19.6213 104.888 19.2638C105.469 18.9064 105.887 18.3702 106.14 17.6553H106.252C106.327 18.1915 106.509 18.6383 106.8 18.9957ZM76.5377 8.00426H74.7491V19.5319H76.5377V8.00426ZM104.329 18.1245C103.957 18.2287 103.547 18.2809 103.099 18.2809C102.399 18.2809 101.844 18.1245 101.434 17.8117C101.024 17.4989 100.819 17.0596 100.819 16.4936V16.0245C100.819 15.4585 101.054 15.0266 101.523 14.7287C101.993 14.4309 102.742 14.2819 103.77 14.2819H106.14V16.1809C106.14 16.4787 106.066 16.7543 105.917 17.0074C105.768 17.2606 105.559 17.484 105.291 17.6777C105.022 17.8713 104.702 18.0202 104.329 18.1245ZM112.278 19.0069C112.598 19.3569 113.071 19.5319 113.697 19.5319H115.285V17.9681H113.586V3H111.797V17.6777C111.797 18.2138 111.957 18.6569 112.278 19.0069ZM129.522 3.9383H124.29V19.5319H129.522C130.491 19.5319 131.37 19.3681 132.16 19.0404C132.95 18.7128 133.625 18.225 134.184 17.5771C134.742 16.9293 135.171 16.1176 135.469 15.142C135.767 14.1665 135.916 13.0309 135.916 11.7351C135.916 10.4394 135.767 9.30373 135.469 8.32819C135.171 7.35266 134.742 6.54096 134.184 5.89309C133.625 5.24521 132.95 4.75745 132.16 4.42979C131.37 4.10213 130.491 3.9383 129.522 3.9383ZM131.288 17.5548C130.751 17.7707 130.163 17.8787 129.522 17.8787H126.168V5.59149H129.522C130.163 5.59149 130.751 5.69947 131.288 5.91543C131.825 6.13138 132.287 6.44787 132.674 6.86489C133.062 7.28192 133.364 7.79202 133.58 8.39521C133.796 8.99841 133.904 9.68723 133.904 10.4617V13.0085C133.904 13.783 133.796 14.4718 133.58 15.075C133.364 15.6782 133.062 16.1883 132.674 16.6053C132.287 17.0223 131.825 17.3388 131.288 17.5548ZM147.99 8.00425H146.223L143.429 15.8457L142.803 17.7223H142.691L142.154 15.8457L139.382 8.00425H137.593L141.908 19.9787L141.036 22.4362H139.225V24H140.142C140.559 24 140.913 23.9702 141.204 23.9106C141.495 23.8511 141.737 23.7543 141.931 23.6202C142.124 23.4862 142.288 23.3037 142.423 23.0729C142.557 22.842 142.691 22.5553 142.825 22.2128L147.99 8.00425ZM152.059 8.00425H150.27V19.5319H152.059V11.534C152.059 11.1617 152.137 10.8378 152.294 10.5622C152.45 10.2867 152.663 10.0596 152.931 9.88085C153.199 9.70213 153.501 9.56809 153.837 9.47872C154.172 9.38936 154.518 9.34468 154.876 9.34468C156.62 9.34468 157.492 10.3798 157.492 12.45V19.5319H159.281V12.1372C159.281 10.7372 158.934 9.65373 158.241 8.8867C157.548 8.11968 156.605 7.73617 155.413 7.73617C154.548 7.73617 153.859 7.92979 153.345 8.31702C152.83 8.70426 152.432 9.22553 152.148 9.88085H152.059V8.00425ZM169.912 18.9957C170.203 19.3532 170.684 19.5319 171.354 19.5319H172.36V17.9681H171.041V11.6234C171.041 10.4021 170.654 9.44894 169.879 8.76383C169.104 8.07872 168.015 7.73617 166.614 7.73617C165.571 7.73617 164.706 7.95585 164.021 8.39521C163.335 8.83458 162.836 9.36702 162.523 9.99255L163.596 10.9979C163.909 10.4766 164.3 10.0596 164.77 9.74681C165.239 9.43404 165.824 9.27766 166.525 9.27766C167.449 9.27766 168.135 9.49361 168.582 9.92553C169.029 10.3574 169.253 10.983 169.253 11.8021V12.9415H166.972C165.288 12.9415 164.047 13.2319 163.249 13.8128C162.452 14.3936 162.053 15.2277 162.053 16.3149C162.053 17.3872 162.392 18.2362 163.071 18.8617C163.749 19.4872 164.699 19.8 165.921 19.8C166.726 19.8 167.419 19.6213 168.001 19.2638C168.582 18.9064 168.999 18.3702 169.253 17.6553H169.364C169.439 18.1915 169.622 18.6383 169.912 18.9957ZM167.442 18.1245C167.069 18.2287 166.659 18.2809 166.212 18.2809C165.511 18.2809 164.956 18.1245 164.546 17.8117C164.136 17.4989 163.931 17.0596 163.931 16.4936V16.0245C163.931 15.4585 164.166 15.0266 164.636 14.7287C165.105 14.4309 165.854 14.2819 166.883 14.2819H169.253V16.1809C169.253 16.4787 169.178 16.7543 169.029 17.0074C168.88 17.2606 168.671 17.484 168.403 17.6777C168.135 17.8713 167.814 18.0202 167.442 18.1245ZM176.698 8.00425H174.909V19.5319H176.698V11.534C176.698 11.1617 176.776 10.8378 176.933 10.5622C177.089 10.2867 177.294 10.0596 177.548 9.88085C177.801 9.70213 178.092 9.56809 178.42 9.47872C178.747 9.38936 179.09 9.34468 179.448 9.34468C180.298 9.34468 180.924 9.60532 181.326 10.1266C181.729 10.6479 181.93 11.4223 181.93 12.45V19.5319H183.718V11.534C183.718 11.1617 183.793 10.8378 183.942 10.5622C184.091 10.2867 184.292 10.0596 184.546 9.88085C184.799 9.70213 185.086 9.56809 185.407 9.47872C185.727 9.38936 186.066 9.34468 186.424 9.34468C187.303 9.34468 187.944 9.60532 188.347 10.1266C188.749 10.6479 188.95 11.4223 188.95 12.45V19.5319H190.739V12.1372C190.739 10.7372 190.407 9.65373 189.744 8.8867C189.081 8.11968 188.16 7.73617 186.983 7.73617C185.999 7.73617 185.22 7.97074 184.646 8.43989C184.072 8.90905 183.681 9.45638 183.473 10.0819H183.428C183.115 9.24787 182.638 8.64841 181.997 8.28351C181.356 7.91862 180.655 7.73617 179.895 7.73617C179.448 7.73617 179.06 7.79202 178.733 7.90372C178.405 8.01543 178.118 8.16808 177.872 8.3617C177.626 8.55532 177.417 8.78245 177.246 9.04309C177.074 9.30373 176.922 9.58298 176.787 9.88085H176.698V8.00425ZM194.484 5.02181C194.655 5.20798 194.935 5.30106 195.322 5.30106C195.71 5.30106 195.99 5.20798 196.161 5.02181C196.332 4.83564 196.418 4.59362 196.418 4.29574V4.00532C196.418 3.70745 196.332 3.46543 196.161 3.27926C195.99 3.09308 195.71 3 195.322 3C194.935 3 194.655 3.09308 194.484 3.27926C194.313 3.46543 194.227 3.70745 194.227 4.00532V4.29574C194.227 4.59362 194.313 4.83564 194.484 5.02181ZM196.217 8.00425H194.428V19.5319H196.217V8.00425ZM202.142 19.3755C202.783 19.6585 203.506 19.8 204.311 19.8C205.414 19.8 206.334 19.5543 207.072 19.0628C207.81 18.5713 208.365 17.9085 208.738 17.0745L207.441 16.2032C206.8 17.5436 205.756 18.2138 204.311 18.2138C203.252 18.2138 202.451 17.8899 201.907 17.242C201.363 16.5941 201.091 15.7638 201.091 14.7511V12.7851C201.091 12.2787 201.158 11.8133 201.292 11.3888C201.426 10.9644 201.628 10.5995 201.896 10.2941C202.164 9.98883 202.5 9.75053 202.902 9.57925C203.304 9.40798 203.774 9.32234 204.311 9.32234C205.026 9.32234 205.622 9.48617 206.099 9.81383C206.576 10.1415 206.919 10.6032 207.128 11.1989L208.626 10.4394C208.283 9.6351 207.765 8.98351 207.072 8.48457C206.379 7.98564 205.458 7.73617 204.311 7.73617C203.506 7.73617 202.783 7.87766 202.142 8.16064C201.501 8.44362 200.961 8.84574 200.521 9.36702C200.081 9.8883 199.746 10.5213 199.515 11.266C199.284 12.0106 199.168 12.8447 199.168 13.7681C199.168 14.6915 199.284 15.5255 199.515 16.2702C199.746 17.0149 200.081 17.6479 200.521 18.1691C200.961 18.6904 201.501 19.0926 202.142 19.3755ZM212.035 19.1856C212.758 19.5952 213.656 19.8 214.73 19.8C216.056 19.8 217.1 19.4798 217.86 18.8394C218.62 18.1989 219 17.3202 219 16.2032C219 15.3245 218.732 14.6133 218.195 14.0697C217.659 13.5261 216.749 13.1574 215.467 12.9638L214.573 12.8298C213.858 12.7106 213.31 12.5245 212.93 12.2713C212.55 12.0181 212.36 11.6085 212.36 11.0426C212.36 10.4915 212.55 10.0559 212.93 9.73564C213.31 9.41542 213.872 9.25532 214.618 9.25532C215.363 9.25532 215.982 9.40053 216.474 9.69096C216.965 9.98139 217.338 10.3053 217.591 10.6628L218.776 9.59043C218.299 9.00957 217.744 8.55532 217.111 8.22766C216.477 7.9 215.691 7.73617 214.752 7.73617C214.171 7.73617 213.627 7.80691 213.12 7.9484C212.613 8.08989 212.177 8.30213 211.812 8.58511C211.447 8.86809 211.16 9.22181 210.951 9.64628C210.742 10.0707 210.638 10.566 210.638 11.1319C210.638 11.6681 210.731 12.1298 210.917 12.517C211.104 12.9043 211.365 13.2282 211.7 13.4888C212.035 13.7495 212.427 13.958 212.874 14.1144C213.321 14.2707 213.813 14.3862 214.349 14.4606L215.266 14.5947C216.026 14.7138 216.552 14.9335 216.842 15.2537C217.133 15.5739 217.278 15.9574 217.278 16.4043C217.278 17 217.066 17.4617 216.641 17.7894C216.216 18.117 215.624 18.2809 214.864 18.2809C214.133 18.2809 213.492 18.1282 212.941 17.8229C212.389 17.5176 211.89 17.0819 211.443 16.516L210.168 17.5436C210.69 18.2287 211.312 18.7761 212.035 19.1856Z" fill="black"/>
</svg>
